X:1
T:Just Before the Dawning
T:Charles Austin Miles
T:Just Before the Dawning
T:Public Domain
T:Public Domain
T:Public Domain
C:Charles Austin Miles
Z:Public Domain
%%score ( 1 2 ) ( 3 4 )
L:1/8
M:4/4
K:Db
V:1 treble 
V:2 treble 
V:3 bass 
V:4 bass 
V:1
 [DF]>[EG] | [FA]2 [FA]2 [FA]>[FA] [GB]>[Gc] | [Fd]2 [GB]2 [FA]4 | %3
w: 1.~O’er the|sil- ver wa- ters of a|pear- ly stream,|
w: 2.~O the|bliss en- chant- ing! O the|vi- sions there!|
w: 3.~Dream- ing|still we wan- der while our|lift- ed eyes|
w: 4.~Now from|sleep a- wak- ing, see the|morn- ing beams|
 [DF]>[DF] [DF]>[EG] [FA]>[FA] [DF]>D | [CE]6 [DF]>[EG] | [FA]2 [FA]2 [FA]>[FA] [GB]>[Gc] | %6
w: Just be- fore the dawn- ing of the|An- gel guards|de- scend- ing in a hap-|
w: Burst- ing like a flood of gold- en|Not a wave|of sor- row, not a throb|
w: View a world of love and joy un-|Dream- ing still|we list- en to the songs|
w: Chas- ing all the clouds of night a-|Yet the harp|of mem- ory brings the hap-|
 [Fd]2 [GB]2 [FA]4 | [Ec]>[Ec] [Ec]>[Fd] [Ec]>[EB] [EA]>[E=G] | (E2 F2 G2) || %9
w: py dream, Bear|us to the sum- mer land a- way.||
w: of care, In|that hap- py, hap- py dream so bright.|Lo, * *|
w: that rise From|the hearts that ne- ver more grow old.||
w: py dream Just|be- fore the dawn- ing of the day.||
"^Refrain" (3(AB)[Gc] | [Fd]2 [GB]2 [FA]2 (3(AB)[Gc] | [Fd]2 [GB]2 [FA]4 | %12
w: |||
w: shin- * ing|wait- ing on the * strand,|us with a|
w: |||
w: |||
 [GB]>[GB] [GB]>[GB] [=GB]>[GB] [Gc]>[Gd] | [Gc]6 (3(AB)[Gc] | [Fd]2 [GB]2 [FA]2 [DF]>[DF] | %15
w: |||
w: sweet and tune- ful lay; Gen- tle words|of cheer * in|dream we hear, Just be-|
w: |||
w: |||
 E2 [=DF]2 ([_EG]2 [=EB]2) | [FA]>[FA] [FA]>[DF] [CA]>[CA] [CG]>[CE] | [A,D]6 |] %18
w: |||
w: fore the dawn- *|of the day. * * * * *||
w: |||
w: |||
V:2
 x2 | x8 | x8 | x15/2 D/ | x8 | x8 | x8 | x8 | A6 || G2 | x6 G2 | x8 | x8 | x6 G2 | x8 | =E2 x6 | %16
w: |||day;|||||||||||||
w: |||light;|||||a|band,|Greet|||that||ing|
w: |||told,|||||||||||||
w: |||way;|||||||||||||
 x8 | x6 |] %18
w: ||
w: ||
w: ||
w: ||
V:3
 [D,A,]>[D,A,] | [D,D]2 [D,D]2 [D,D]>[D,D] [G,D]>[E,A,] | [D,A,]2 [D,D]2 [D,D]4 | %3
 [D,A,]>[D,A,] [D,A,]>[D,A,] [D,D]>[D,D] [D,A,]>[F,A,] | (A,2 A,2 A,>G,) [F,A,]>[E,A,] | %5
 [D,D]2 [D,D]2 [D,D]>[D,D] [G,D]>[E,A,] | [D,A,]2 [D,D]2 [D,D]4 | %7
 [E,A,]>[E,A,] [E,A,]>[E,A,] [E,A,]>[E,D] [E,C]>[E,B,] | (C2 D2 E2) || (3(CD)[F,E] | %10
 [D,D]2 [D,D]2 [D,D]2 (3(CD)[A,E] | [D,D]2 [D,D]2 [D,D]4 | %12
 [G,D]>[G,D] [G,D]>[G,D] [E,E]>[E,E] [E,E]>[E,E] | (A,2 G,2 E,2) (3(CD)[A,E] | %14
 [D,D]2 [D,D]2 [D,D]2 [D,A,]>[D,A,] | [G,B,]2 [F,B,]2 ([E,B,]2 [=G,D]2) | %16
 [A,D]>[A,D] [A,D]>A, [A,,E,]>[A,,E,] [A,,A,]>[A,,G,] | [D,F,]6 |] %18
V:4
 x2 | x8 | x8 | x8 | A,6 x2 | x8 | x8 | x8 | A,,6 || A,2 | x6 A,2 | x8 | x8 | E6 A,2 | x8 | x8 | %16
 x7/2 A,/ x4 | x6 |] %18

